icon-svg/yeelight-strip.svg

<svg xmlns="http://www.w3.org/2000/svg" fill="#44739e" viewBox="0 0 24 24"><path d="M9.869 13.176c.082.157.177.307.254.465a1.2 1.2 0 0 1-.217.144.92.92 0 0 1-.247.112 2 2 0 0 1-.159-.266 1.54 1.54 0 0 1-.153-.289c.13-.09.274-.166.411-.243.065-.034.082.036.111.077M2 13.036c.17-.022.346 0 .517-.009.2 0 .409-.012.61.006.008 1.441 0 2.92 0 4.364a1.6 1.6 0 0 1 0 .21H2.002Q2 15.321 2 13.036m9.883-10.502a10.2 10.2 0 0 1 1.261.039 10.1 10.1 0 0 1 2.729.653 9.82 9.82 0 0 1 3.2 2.048 3.8 3.8 0 0 1 .348.357 10.1 10.1 0 0 1 .929 1.158 9.74 9.74 0 0 1 1.047 2 9.45 9.45 0 0 1 .531 2.088 9.06 9.06 0 0 1-.028 2.493 9.38 9.38 0 0 1-1.329 3.664 8.2 8.2 0 0 1-1.169 1.482 8.9 8.9 0 0 1-.726.684 8.73 8.73 0 0 1-1.732 1.146 9.3 9.3 0 0 1-4.387 1.043 9.58 9.58 0 0 1-4.134-1.015 9.32 9.32 0 0 1-1.808-1.182c-.14-.114-.26-.248-.4-.362-.2-.163-.344-.366-.528-.543a7.7 7.7 0 0 1-.627-.783 8.9 8.9 0 0 1-.85-1.464 8.69 8.69 0 0 1-.741-2.558 8.37 8.37 0 0 1 .01-2.345 8.957 8.957 0 0 1 1.9-4.386 11.1 11.1 0 0 1 .88-.924A8.83 8.83 0 0 1 8.31 4.432a8.72 8.72 0 0 1 3.374-.9 8.95 8.95 0 0 1 5.938 1.808 8.6 8.6 0 0 1 3.208 5.024 8.2 8.2 0 0 1 .164 1.167 7.92 7.92 0 0 1-.067 1.686 8.56 8.56 0 0 1-.606 2.182A8.4 8.4 0 0 1 19.41 17a9.2 9.2 0 0 1-1.277 1.375 8.46 8.46 0 0 1-1.6 1.079 8.24 8.24 0 0 1-2.488.84 7.9 7.9 0 0 1-2.5.034 8.505 8.505 0 0 1-4.415-1.987 5.46 5.46 0 0 1-.7-.705 8.035 8.035 0 0 1-1.977-4.31 7.2 7.2 0 0 1-.021-1.826 7.92 7.92 0 0 1 1.232-3.453 7.56 7.56 0 0 1 1.253-1.482 8.02 8.02 0 0 1 2.271-1.452 7.75 7.75 0 0 1 2.61-.6c.253-.009.508-.007.762 0a7.983 7.983 0 0 1 4.5 1.642 6.66 6.66 0 0 1 .866.769c.106.129.224.248.327.379a7.443 7.443 0 0 1 1.763 4.539 7.78 7.78 0 0 1-.147 1.675 7.29 7.29 0 0 1-1.632 3.359c-.2.217-.408.42-.615.625a7.386 7.386 0 0 1-5.264 1.918 7.96 7.96 0 0 1-2-.363A7.65 7.65 0 0 1 7.782 17.6a7.32 7.32 0 0 1-1.7-2.242 6.86 6.86 0 0 1-.7-2.817 6.98 6.98 0 0 1 .473-2.708A6.9 6.9 0 0 1 7.084 7.8c.148-.161.305-.315.462-.469a5.9 5.9 0 0 1 .663-.549 6.85 6.85 0 0 1 3.081-1.231 6.96 6.96 0 0 1 3.288.351 6.94 6.94 0 0 1 2.1 1.2 8.14 8.14 0 0 1 .846.846c.161.208.323.414.464.637a6.456 6.456 0 0 1 1.056 3.478 6.78 6.78 0 0 1-.6 2.7 6.05 6.05 0 0 1-1.021 1.547 4 4 0 0 1-.45.451A6.37 6.37 0 0 1 12.5 18.43a6.58 6.58 0 0 1-2.233-.465A6.435 6.435 0 0 1 8.1 16.55a11 11 0 0 1-.38-.437 6.12 6.12 0 0 1-1.226-2.5 5.76 5.76 0 0 1-.039-2.35 5.97 5.97 0 0 1 1.209-2.626 6.7 6.7 0 0 1 .55-.579 5.36 5.36 0 0 1 1.067-.792 5.76 5.76 0 0 1 2.088-.735 5.7 5.7 0 0 1 .993-.053 5.55 5.55 0 0 1 1.5.225 5.97 5.97 0 0 1 2.053 1.051 4.48 4.48 0 0 1 .735.7 5.66 5.66 0 0 1 .6.812 5.45 5.45 0 0 1 .8 2.77 5.374 5.374 0 0 1-1.67 3.933 7.4 7.4 0 0 1-.575.469 5.6 5.6 0 0 1-.931.536 5.333 5.333 0 0 1-2.833.431 5.626 5.626 0 0 1-2.906-1.243 5.316 5.316 0 0 1-1.582-2.419 4.884 4.884 0 0 1 0-2.8 4.95 4.95 0 0 1 .93-1.743c.186-.207.388-.4.591-.594a4.92 4.92 0 0 1 2.375-1.092 5.44 5.44 0 0 1 1.2-.041 5.2 5.2 0 0 1 .99.188A4.984 4.984 0 0 1 15.723 8.9a5.4 5.4 0 0 1 .7.908 4.39 4.39 0 0 1 .592 1.69 3.58 3.58 0 0 1 .018 1.007 4.58 4.58 0 0 1-.333 1.3 4.37 4.37 0 0 1-1.02 1.462 4.406 4.406 0 0 1-5.1.667 4.03 4.03 0 0 1-.926-.654 4.2 4.2 0 0 1-1.2-1.987 3.88 3.88 0 0 1-.062-1.622 3.955 3.955 0 0 1 .92-1.921 2.18 2.18 0 0 1 .327-.324 3.843 3.843 0 0 1 2.214-.965 4.4 4.4 0 0 1 1.051.044 3.956 3.956 0 0 1 1.885.881 3.665 3.665 0 0 1 1.145 1.757 3.13 3.13 0 0 1 .124.7 3.67 3.67 0 0 1-.049.857 3.367 3.367 0 0 1-.939 1.8 3.58 3.58 0 0 1-.838.6 3.42 3.42 0 0 1-1.277.376 3.65 3.65 0 0 1-1.377-.165 3.38 3.38 0 0 1-1.356-.844 2.58 2.58 0 0 1-.4-.506.716.716 0 0 1 .278-.161c.059.063.106.138.159.206a2.94 2.94 0 0 0 .879.758 3.085 3.085 0 0 0 4.585-2.272 3 3 0 0 0-.15-1.429 3.6 3.6 0 0 0-2.376-2.167 3.85 3.85 0 0 0-1.228-.124 3.57 3.57 0 0 0-1.507.465 3.325 3.325 0 0 0-1.105.981 3.594 3.594 0 0 0-.682 1.744 3.65 3.65 0 0 0 .125 1.379 3.933 3.933 0 0 0 1.055 1.682 4.063 4.063 0 0 0 2.078 1.056 4.39 4.39 0 0 0 1.473 0 4.07 4.07 0 0 0 3.326-4.149 5.26 5.26 0 0 0-.105-.771 4.443 4.443 0 0 0-1.687-2.486 4.53 4.53 0 0 0-2.156-.864 5.44 5.44 0 0 0-.847-.027 4.6 4.6 0 0 0-2.214.747 4.22 4.22 0 0 0-.985.876 4.613 4.613 0 0 0-1.047 2.454 4.53 4.53 0 0 0 .267 2.075 4.83 4.83 0 0 0 .858 1.426 5.04 5.04 0 0 0 3.488 1.761 5.54 5.54 0 0 0 1.186-.056 5.05 5.05 0 0 0 2.067-.84 4.82 4.82 0 0 0 1-.917 5.024 5.024 0 0 0 1.157-2.937A4.964 4.964 0 0 0 17.17 9.8a5.74 5.74 0 0 0-.812-1.16 3.64 3.64 0 0 0-.371-.364 4.87 4.87 0 0 0-.877-.676 5.473 5.473 0 0 0-3.342-.792A5.605 5.605 0 0 0 8.526 8.2a3.56 3.56 0 0 0-.477.482 5.68 5.68 0 0 0-1.242 2.454 5.52 5.52 0 0 0 .017 2.464 5.74 5.74 0 0 0 1.228 2.385c.213.227.433.451.66.664a6.062 6.062 0 0 0 7.5.318c.2-.144.388-.306.576-.468a6.3 6.3 0 0 0 1.233-1.616 6 6 0 0 0 .676-2.467 5.92 5.92 0 0 0-.434-2.616 6.56 6.56 0 0 0-1.086-1.733c-.136-.157-.289-.294-.432-.445a.46.46 0 0 0-.175-.122 1.4 1.4 0 0 0-.325-.3 6.3 6.3 0 0 0-.613-.428 6.24 6.24 0 0 0-1.732-.754 6.65 6.65 0 0 0-1.792-.218 6.574 6.574 0 0 0-4.293 1.719 3.26 3.26 0 0 0-.381.381 6.36 6.36 0 0 0-.851 1.151 6.48 6.48 0 0 0-.829 2.394 6.37 6.37 0 0 0-.007 1.734 6.53 6.53 0 0 0 .9 2.543 7.15 7.15 0 0 0 2.146 2.226 7.056 7.056 0 0 0 8.62-.69 4.2 4.2 0 0 0 .451-.452 7.85 7.85 0 0 0 .9-1.239 7.022 7.022 0 0 0 .876-4.349A6.85 6.85 0 0 0 19 9.041a7.42 7.42 0 0 0-1.017-1.55A8 8 0 0 0 16.1 5.9a6.8 6.8 0 0 0-1.567-.718 7.5 7.5 0 0 0-1.555-.327 7.2 7.2 0 0 0-1.191-.021 7.547 7.547 0 0 0-4.553 1.878c-.209.2-.418.41-.62.621a7.491 7.491 0 0 0-.181 9.786 8.3 8.3 0 0 0 .739.786 6.34 6.34 0 0 0 1.046.844 8.085 8.085 0 0 0 3.437 1.278 8.26 8.26 0 0 0 2.545-.086A8.12 8.12 0 0 0 18.069 18a6.3 6.3 0 0 0 .708-.729 8.32 8.32 0 0 0 1.041-1.554 7.97 7.97 0 0 0 .61-5.648 8.17 8.17 0 0 0-1.8-3.335 5.1 5.1 0 0 0-.361-.374 8.3 8.3 0 0 0-1.246-1.038 8.17 8.17 0 0 0-1.375-.77 8.4 8.4 0 0 0-2.377-.652 9.73 9.73 0 0 0-1.7-.043A8.62 8.62 0 0 0 9.18 4.4a7.76 7.76 0 0 0-1.08.5 8.64 8.64 0 0 0-1.491 1.046c-.219.194-.424.4-.628.614a8.646 8.646 0 0 0-2.118 4.2A8.4 8.4 0 0 0 5 16.805a9.3 9.3 0 0 0 .94 1.26c.229.247.474.49.721.719a10 10 0 0 0 1.087.83 9 9 0 0 0 3.106 1.269 7.87 7.87 0 0 0 1.367.17 8.9 8.9 0 0 0 1.243-.02 9.025 9.025 0 0 0 5.14-2.19 8.3 8.3 0 0 0 .66-.639 9.64 9.64 0 0 0 1.01-1.3 8.92 8.92 0 0 0 1.248-3.154 8.56 8.56 0 0 0 .141-2.138 8.37 8.37 0 0 0-.32-1.95A9.14 9.14 0 0 0 19.876 6.7a9.8 9.8 0 0 0-.793-.928 8.3 8.3 0 0 0-.656-.614c-.251-.234-.532-.425-.8-.633a9.77 9.77 0 0 0-1.478-.834 9.55 9.55 0 0 0-3.249-.823c-.451-.021-.9-.019-1.355 0a9.72 9.72 0 0 0-5.562 2.31c-.277.249-.535.519-.8.784-.185.19-.346.409-.513.616a9.48 9.48 0 0 0-1.87 4.585 7.5 7.5 0 0 0-.064.762c-.017.335 0 .671 0 1.006a1.42 1.42 0 0 1-.319 0c-.021-.295-.007-.6-.007-.891a10.38 10.38 0 0 1 .38-2.414 9.91 9.91 0 0 1 1.649-3.283 9.7 9.7 0 0 1 .866-.967 5.8 5.8 0 0 1 .484-.447A9.877 9.877 0 0 1 11.2 2.58a6.2 6.2 0 0 1 .683-.046"/></svg>

<?xml version="1.0" encoding="UTF-8"?>
<svg width="24px" fill="#44739e" height="24px" viewBox="0 0 24 24" version="1.1" xmlns="http://www.w3.org/2000/svg" xmlns:xlink="http://www.w3.org/1999/xlink">
            <path d="m 9.869,13.176 c 0.082,0.157 0.177,0.307 0.254,0.465 A 1.185,1.185 0 0 1 9.906,13.785 0.917,0.917 0 0 1 9.659,13.897 2.032,2.032 0 0 1 9.5,13.631 1.542,1.542 0 0 1 9.347,13.342 c 0.13,-0.09 0.274,-0.166 0.411,-0.243 0.065,-0.034 0.082,0.036 0.111,0.077 z M 2,13.036 c 0.17,-0.022 0.346,0 0.517,-0.009 0.2,0 0.409,-0.012 0.61,0.006 0.008,1.441 0,2.92 0,4.364 a 1.636,1.636 0 0 1 0,0.21 c -0.374,0 -0.751,0 -1.125,0 Q 2,15.321 2,13.036 Z M 11.883,2.534 a 10.2,10.2 0 0 1 1.261,0.039 10.1,10.1 0 0 1 2.729,0.653 9.825,9.825 0 0 1 3.2,2.048 3.783,3.783 0 0 1 0.348,0.357 10.13,10.13 0 0 1 0.929,1.158 9.738,9.738 0 0 1 1.047,2 9.454,9.454 0 0 1 0.531,2.088 9.058,9.058 0 0 1 -0.028,2.493 9.376,9.376 0 0 1 -1.329,3.664 8.213,8.213 0 0 1 -1.169,1.482 8.845,8.845 0 0 1 -0.726,0.684 8.728,8.728 0 0 1 -1.732,1.146 9.3,9.3 0 0 1 -4.387,1.043 A 9.578,9.578 0 0 1 8.423,20.374 9.316,9.316 0 0 1 6.615,19.192 C 6.475,19.078 6.355,18.944 6.215,18.83 6.015,18.667 5.871,18.464 5.687,18.287 A 7.734,7.734 0 0 1 5.06,17.504 8.9,8.9 0 0 1 4.21,16.04 8.687,8.687 0 0 1 3.469,13.482 a 8.373,8.373 0 0 1 0.01,-2.345 8.957,8.957 0 0 1 1.9,-4.386 11.124,11.124 0 0 1 0.88,-0.924 8.828,8.828 0 0 1 2.051,-1.395 8.716,8.716 0 0 1 3.374,-0.9 8.949,8.949 0 0 1 5.938,1.808 8.6,8.6 0 0 1 3.208,5.024 8.214,8.214 0 0 1 0.164,1.167 7.924,7.924 0 0 1 -0.067,1.686 8.556,8.556 0 0 1 -0.606,2.182 8.4,8.4 0 0 1 -0.911,1.601 9.185,9.185 0 0 1 -1.277,1.375 8.457,8.457 0 0 1 -1.6,1.079 8.238,8.238 0 0 1 -2.488,0.84 7.906,7.906 0 0 1 -2.5,0.034 A 8.505,8.505 0 0 1 7.13,18.341 5.46,5.46 0 0 1 6.43,17.636 8.035,8.035 0 0 1 4.453,13.326 7.2,7.2 0 0 1 4.432,11.5 7.92,7.92 0 0 1 5.664,8.047 7.562,7.562 0 0 1 6.917,6.565 8.015,8.015 0 0 1 9.188,5.113 a 7.751,7.751 0 0 1 2.61,-0.6 c 0.253,-0.009 0.508,-0.007 0.762,0 a 7.983,7.983 0 0 1 4.5,1.642 6.659,6.659 0 0 1 0.866,0.769 c 0.106,0.129 0.224,0.248 0.327,0.379 a 7.443,7.443 0 0 1 1.763,4.539 7.779,7.779 0 0 1 -0.147,1.675 7.29,7.29 0 0 1 -1.632,3.359 c -0.2,0.217 -0.408,0.42 -0.615,0.625 a 7.386,7.386 0 0 1 -5.264,1.918 7.964,7.964 0 0 1 -2,-0.363 A 7.652,7.652 0 0 1 7.782,17.6 7.321,7.321 0 0 1 6.082,15.358 6.857,6.857 0 0 1 5.382,12.541 6.983,6.983 0 0 1 5.855,9.833 6.9,6.9 0 0 1 7.084,7.8 C 7.232,7.639 7.389,7.485 7.546,7.331 a 5.926,5.926 0 0 1 0.663,-0.549 6.853,6.853 0 0 1 3.081,-1.231 6.961,6.961 0 0 1 3.288,0.351 6.94,6.94 0 0 1 2.1,1.2 8.141,8.141 0 0 1 0.846,0.846 c 0.161,0.208 0.323,0.414 0.464,0.637 a 6.456,6.456 0 0 1 1.056,3.478 6.778,6.778 0 0 1 -0.6,2.7 6.046,6.046 0 0 1 -1.021,1.547 3.993,3.993 0 0 1 -0.45,0.451 A 6.369,6.369 0 0 1 12.5,18.43 6.575,6.575 0 0 1 10.267,17.965 6.435,6.435 0 0 1 8.1,16.55 C 7.969,16.408 7.843,16.261 7.72,16.113 a 6.119,6.119 0 0 1 -1.226,-2.5 5.761,5.761 0 0 1 -0.039,-2.35 5.972,5.972 0 0 1 1.209,-2.626 6.677,6.677 0 0 1 0.55,-0.579 5.361,5.361 0 0 1 1.067,-0.792 5.76,5.76 0 0 1 2.088,-0.735 5.681,5.681 0 0 1 0.993,-0.053 5.552,5.552 0 0 1 1.5,0.225 5.974,5.974 0 0 1 2.053,1.051 4.48,4.48 0 0 1 0.735,0.7 5.655,5.655 0 0 1 0.6,0.812 5.452,5.452 0 0 1 0.8,2.77 5.374,5.374 0 0 1 -1.67,3.933 7.352,7.352 0 0 1 -0.575,0.469 5.591,5.591 0 0 1 -0.931,0.536 5.333,5.333 0 0 1 -2.833,0.431 5.626,5.626 0 0 1 -2.906,-1.243 5.316,5.316 0 0 1 -1.582,-2.419 4.884,4.884 0 0 1 0,-2.8 A 4.951,4.951 0 0 1 8.483,9.2 C 8.669,8.993 8.871,8.8 9.074,8.606 a 4.918,4.918 0 0 1 2.375,-1.092 5.436,5.436 0 0 1 1.2,-0.041 5.21,5.21 0 0 1 0.99,0.188 4.984,4.984 0 0 1 2.084,1.239 5.41,5.41 0 0 1 0.7,0.908 4.39,4.39 0 0 1 0.592,1.69 3.577,3.577 0 0 1 0.018,1.007 4.579,4.579 0 0 1 -0.333,1.3 4.366,4.366 0 0 1 -1.02,1.462 4.406,4.406 0 0 1 -5.1,0.667 4.03,4.03 0 0 1 -0.926,-0.654 4.2,4.2 0 0 1 -1.2,-1.987 3.876,3.876 0 0 1 -0.062,-1.622 3.955,3.955 0 0 1 0.92,-1.921 2.178,2.178 0 0 1 0.327,-0.324 3.843,3.843 0 0 1 2.214,-0.965 4.4,4.4 0 0 1 1.051,0.044 3.956,3.956 0 0 1 1.885,0.881 3.665,3.665 0 0 1 1.145,1.757 3.128,3.128 0 0 1 0.124,0.7 3.672,3.672 0 0 1 -0.049,0.857 3.367,3.367 0 0 1 -0.939,1.8 3.577,3.577 0 0 1 -0.838,0.6 3.416,3.416 0 0 1 -1.277,0.376 3.653,3.653 0 0 1 -1.377,-0.165 3.379,3.379 0 0 1 -1.356,-0.844 2.583,2.583 0 0 1 -0.4,-0.506 A 0.716,0.716 0 0 1 10.1,13.8 c 0.059,0.063 0.106,0.138 0.159,0.206 a 2.936,2.936 0 0 0 0.879,0.758 3.085,3.085 0 0 0 4.585,-2.272 3,3 0 0 0 -0.15,-1.429 3.6,3.6 0 0 0 -2.376,-2.167 3.85,3.85 0 0 0 -1.228,-0.124 3.567,3.567 0 0 0 -1.507,0.465 3.325,3.325 0 0 0 -1.105,0.981 3.594,3.594 0 0 0 -0.682,1.744 3.65,3.65 0 0 0 0.125,1.379 3.933,3.933 0 0 0 1.055,1.682 4.063,4.063 0 0 0 2.078,1.056 4.388,4.388 0 0 0 1.473,0 A 4.07,4.07 0 0 0 16.732,11.93 5.255,5.255 0 0 0 16.627,11.159 4.443,4.443 0 0 0 14.94,8.673 4.528,4.528 0 0 0 12.784,7.809 5.44,5.44 0 0 0 11.937,7.782 4.6,4.6 0 0 0 9.723,8.529 4.222,4.222 0 0 0 8.738,9.405 a 4.613,4.613 0 0 0 -1.047,2.454 4.527,4.527 0 0 0 0.267,2.075 4.834,4.834 0 0 0 0.858,1.426 5.039,5.039 0 0 0 3.488,1.761 5.535,5.535 0 0 0 1.186,-0.056 5.049,5.049 0 0 0 2.067,-0.84 4.82,4.82 0 0 0 1,-0.917 5.024,5.024 0 0 0 1.157,-2.937 A 4.964,4.964 0 0 0 17.17,9.8 5.743,5.743 0 0 0 16.358,8.64 3.642,3.642 0 0 0 15.987,8.276 4.87,4.87 0 0 0 15.11,7.6 5.473,5.473 0 0 0 11.768,6.808 5.605,5.605 0 0 0 8.526,8.2 3.562,3.562 0 0 0 8.049,8.682 5.678,5.678 0 0 0 6.807,11.136 5.517,5.517 0 0 0 6.824,13.6 5.743,5.743 0 0 0 8.052,15.985 c 0.213,0.227 0.433,0.451 0.66,0.664 a 6.062,6.062 0 0 0 7.5,0.318 c 0.2,-0.144 0.388,-0.306 0.576,-0.468 A 6.3,6.3 0 0 0 18.021,14.883 6,6 0 0 0 18.697,12.416 5.917,5.917 0 0 0 18.263,9.8 6.558,6.558 0 0 0 17.177,8.067 C 17.041,7.91 16.888,7.773 16.745,7.622 A 0.462,0.462 0 0 0 16.57,7.5 1.4,1.4 0 0 0 16.245,7.2 6.341,6.341 0 0 0 15.632,6.772 6.236,6.236 0 0 0 13.9,6.018 6.65,6.65 0 0 0 12.108,5.8 6.574,6.574 0 0 0 7.815,7.519 3.264,3.264 0 0 0 7.434,7.9 6.356,6.356 0 0 0 6.583,9.051 a 6.481,6.481 0 0 0 -0.829,2.394 6.373,6.373 0 0 0 -0.007,1.734 6.526,6.526 0 0 0 0.9,2.543 7.148,7.148 0 0 0 2.146,2.226 7.056,7.056 0 0 0 8.62,-0.69 4.184,4.184 0 0 0 0.451,-0.452 7.85,7.85 0 0 0 0.9,-1.239 A 7.022,7.022 0 0 0 19.64,11.218 6.849,6.849 0 0 0 19,9.041 7.418,7.418 0 0 0 17.983,7.491 8.007,8.007 0 0 0 16.1,5.9 6.8,6.8 0 0 0 14.533,5.182 7.51,7.51 0 0 0 12.978,4.855 7.178,7.178 0 0 0 11.787,4.834 7.547,7.547 0 0 0 7.234,6.712 c -0.209,0.2 -0.418,0.41 -0.62,0.621 a 7.491,7.491 0 0 0 -0.181,9.786 8.256,8.256 0 0 0 0.739,0.786 6.338,6.338 0 0 0 1.046,0.844 8.085,8.085 0 0 0 3.437,1.278 8.263,8.263 0 0 0 2.545,-0.086 8.119,8.119 0 0 0 3.869,-1.941 6.334,6.334 0 0 0 0.708,-0.729 8.32,8.32 0 0 0 1.041,-1.554 7.971,7.971 0 0 0 0.61,-5.648 8.167,8.167 0 0 0 -1.8,-3.335 A 5.1,5.1 0 0 0 18.267,6.36 8.309,8.309 0 0 0 17.021,5.322 8.168,8.168 0 0 0 15.646,4.552 8.394,8.394 0 0 0 13.269,3.9 9.726,9.726 0 0 0 11.569,3.857 8.618,8.618 0 0 0 9.18,4.4 7.759,7.759 0 0 0 8.1,4.9 8.644,8.644 0 0 0 6.609,5.946 C 6.39,6.14 6.185,6.346 5.981,6.56 a 8.646,8.646 0 0 0 -2.118,4.2 8.4,8.4 0 0 0 1.137,6.045 9.314,9.314 0 0 0 0.94,1.26 c 0.229,0.247 0.474,0.49 0.721,0.719 a 10.037,10.037 0 0 0 1.087,0.83 9,9 0 0 0 3.106,1.269 7.873,7.873 0 0 0 1.367,0.17 8.894,8.894 0 0 0 1.243,-0.02 9.025,9.025 0 0 0 5.14,-2.19 8.3,8.3 0 0 0 0.66,-0.639 9.644,9.644 0 0 0 1.01,-1.3 8.919,8.919 0 0 0 1.248,-3.154 8.561,8.561 0 0 0 0.141,-2.138 8.372,8.372 0 0 0 -0.32,-1.95 A 9.141,9.141 0 0 0 19.876,6.7 9.753,9.753 0 0 0 19.083,5.772 8.272,8.272 0 0 0 18.427,5.158 C 18.176,4.924 17.895,4.733 17.627,4.525 A 9.766,9.766 0 0 0 16.149,3.691 9.553,9.553 0 0 0 12.9,2.868 C 12.449,2.847 12,2.849 11.545,2.868 A 9.719,9.719 0 0 0 5.983,5.178 C 5.706,5.427 5.448,5.697 5.183,5.962 4.998,6.152 4.837,6.371 4.67,6.578 A 9.478,9.478 0 0 0 2.8,11.163 7.456,7.456 0 0 0 2.736,11.925 c -0.017,0.335 0,0.671 0,1.006 a 1.418,1.418 0 0 1 -0.319,0 C 2.396,12.636 2.41,12.331 2.41,12.04 A 10.378,10.378 0 0 1 2.79,9.626 9.91,9.91 0 0 1 4.439,6.343 9.687,9.687 0 0 1 5.305,5.376 5.836,5.836 0 0 1 5.789,4.929 9.877,9.877 0 0 1 11.2,2.58 6.233,6.233 0 0 1 11.883,2.534 Z"/>

</svg>
